X: 24238
T: Lord Of Carnarvan's Jigg
R: barndance
M: 4/4
K: Gmajor
BG B/c/d/B/|cA A/B/c/d/|BG de/f/|g2 d-:|
g/f/e/d/ gB|AA cd/c/|B/c/d b>a|g2 d-:|

